src/assets/images/substack.svg

<svg xmlns="http://www.w3.org/2000/svg" viewBox="0 0 24 24" fill="currentColor" width="100%" height="100%">
  <path d="M19 6.5H5V4h14v2.5zm0 3.5H5V7.5h14V10zm-14 1H5v9l7-4.5 7 4.5v-9H5z" />
</svg>

<?xml version="1.0" encoding="UTF-8" standalone="no"?>
<!DOCTYPE svg PUBLIC "-//W3C//DTD SVG 1.1//EN" "http://www.w3.org/Graphics/SVG/1.1/DTD/svg11.dtd">
<svg width="100%" height="100%" viewBox="0 0 24 24" version="1.1" xmlns="http://www.w3.org/2000/svg" xmlns:xlink="http://www.w3.org/1999/xlink" xml:space="preserve" xmlns:serif="http://www.serif.com/" style="fill-rule:evenodd;clip-rule:evenodd;stroke-linejoin:round;stroke-miterlimit:2;">
    <g transform="matrix(1.285714,0,0,1.285714,-3.428571,-3.428571)">
        <path d="M19,6.5L5,6.5L5,4L19,4L19,6.5ZM19,10L5,10L5,7.5L19,7.5L19,10ZM5,11L5,20L12,15.5L19,20L19,11L5,11Z" style="fill-rule:nonzero;"/>
    </g>
</svg>
